X:7
S:The Pogues
K:D
M:3/4
L:1/8
DE | F3A AF | E4 DE | F2 d2 c2 | B4 Bc |
d3B A2 | E4 DE | F3A AF | E4 DE |
F3A AF | E4 DE | F2 d2 c2 | B4 Bc |
d3B A2 | E4 DE | (D6 | D4) :|
%%begintext
Arragned mandolin part
%%endtext
M:3/4
DE | FA, GA, FA, | ED B,C DE | FA, dF cF | BA GA Bc |
dc BA GF | ED B,C DE | FA, GA, FA, | ED B,C DE |
FA, GA, FA, | ED B,C DE | FA, dF cF | BA GA Bc |
dc BA GF | ED B,C DE | D3E DC | D4 :|
